frontend/public/images/tiktok.svg

<svg width="45" height="45" viewBox="0 0 45 45" fill="none" xmlns="http://www.w3.org/2000/svg" shape-rendering="geometricPrecision">
<circle cx="22.5" cy="22.5" r="22.5" fill="#2F2F2F"/>
<path d="M29.5162 16.3304C29.3707 16.2552 29.229 16.1727 29.0917 16.0834C28.6925 15.8194 28.3264 15.5084 28.0015 15.1571C27.1884 14.2267 26.8847 13.2829 26.7729 12.6221H26.7774C26.6839 12.0736 26.7226 11.7188 26.7284 11.7188H23.025V26.0389C23.025 26.2312 23.025 26.4212 23.0169 26.609C23.0169 26.6324 23.0147 26.6539 23.0134 26.6791C23.0134 26.6894 23.0134 26.7002 23.0111 26.711C23.0111 26.7137 23.0111 26.7164 23.0111 26.7191C22.9721 27.2329 22.8074 27.7292 22.5315 28.1644C22.2556 28.5996 21.877 28.9604 21.429 29.2149C20.962 29.4806 20.4339 29.6199 19.8967 29.6192C18.1712 29.6192 16.7728 28.2123 16.7728 26.4747C16.7728 24.7371 18.1712 23.3302 19.8967 23.3302C20.2233 23.3299 20.5479 23.3813 20.8584 23.4824L20.8629 19.7117C19.9202 19.5899 18.9624 19.6648 18.0501 19.9317C17.1378 20.1986 16.2906 20.6517 15.5622 21.2624C14.9238 21.817 14.3872 22.4788 13.9764 23.2179C13.8201 23.4874 13.2303 24.5704 13.1588 26.3282C13.1139 27.326 13.4135 28.3596 13.5564 28.7868V28.7958C13.6462 29.0474 13.9944 29.9058 14.5617 30.6295C15.0193 31.21 15.5598 31.72 16.1659 32.1429V32.1339L16.1749 32.1429C17.9677 33.3612 19.9555 33.2812 19.9555 33.2812C20.2996 33.2673 21.4523 33.2812 22.7613 32.6609C24.2132 31.9731 25.0398 30.9485 25.0398 30.9485C25.5678 30.3362 25.9877 29.6385 26.2814 28.8852C26.6165 28.0043 26.7284 26.9477 26.7284 26.5254V18.9283C26.7733 18.9552 27.3717 19.351 27.3717 19.351C27.3717 19.351 28.2337 19.9035 29.5787 20.2633C30.5436 20.5194 31.8436 20.5733 31.8436 20.5733V16.8969C31.3881 16.9463 30.4632 16.8026 29.5162 16.3304Z" fill="white"/>
</svg>

<svg fill="none" shape-rendering="geometricPrecision" viewBox="0 0 45 45"><circle cx="22.5" cy="22.5" r="22.5" fill="#2f2f2f"/><path fill="#fff" d="M29.516 16.33a5 5 0 0 1-.424-.247 6 6 0 0 1-1.09-.926 5.15 5.15 0 0 1-1.23-2.535h.005c-.093-.548-.054-.903-.049-.903h-3.703v14.32c0 .192 0 .382-.008.57q0 .034-.004.07l-.002.032v.008a3.14 3.14 0 0 1-1.582 2.496 3.1 3.1 0 0 1-1.532.404 3.134 3.134 0 0 1-3.124-3.144 3.134 3.134 0 0 1 3.124-3.145c.326 0 .65.051.961.152l.005-3.77a6.88 6.88 0 0 0-5.3 1.55 7.3 7.3 0 0 0-1.587 1.956c-.156.27-.746 1.352-.817 3.11-.045.998.255 2.032.397 2.459v.009c.09.251.438 1.11 1.006 1.834.457.58.998 1.09 1.604 1.513v-.01l.009.01c1.793 1.218 3.78 1.138 3.78 1.138.345-.014 1.497 0 2.806-.62 1.452-.688 2.279-1.713 2.279-1.713a7.1 7.1 0 0 0 1.241-2.063c.335-.88.447-1.937.447-2.36v-7.597c.045.027.644.423.644.423s.862.553 2.207.912c.965.256 2.265.31 2.265.31v-3.676c-.456.05-1.38-.094-2.328-.567"/></svg>
